src/lib/packages/icons/src/assets/filled/crown-alt.svg

<svg width="24" height="24" viewBox="0 0 24 24" fill="none" xmlns="http://www.w3.org/2000/svg">
<path d="M4.86298 15.876L3.04401 8.84297C2.75901 7.79597 3.92503 6.956 4.82703 7.558L7.14301 9.10198C7.64001 9.43398 8.31599 9.245 8.57099 8.704L10.935 3.67497C11.357 2.77597 12.636 2.776 13.059 3.674L15.429 8.70497C15.684 9.24597 16.359 9.43298 16.856 9.10198L19.172 7.558C20.075 6.956 21.241 7.79697 20.955 8.84297L19.136 15.876C18.965 16.538 18.368 17 17.684 17H6.31403C5.63103 17 5.03398 16.538 4.86298 15.876ZM19.25 20C19.25 19.586 18.914 19.25 18.5 19.25H5.50001C5.08601 19.25 4.75001 19.586 4.75001 20C4.75001 20.414 5.08601 20.75 5.50001 20.75H18.5C18.914 20.75 19.25 20.414 19.25 20Z" fill="currentColor"/>
</svg>

<svg xmlns="http://www.w3.org/2000/svg" width="24" height="24" fill="none"><path fill="currentColor" d="M4.863 15.876 3.044 8.843c-.285-1.047.881-1.887 1.783-1.285l2.316 1.544a.978.978 0 0 0 1.428-.398l2.364-5.029c.422-.899 1.701-.899 2.124-.001l2.37 5.031a.978.978 0 0 0 1.427.397l2.316-1.544c.903-.602 2.069.239 1.783 1.285l-1.819 7.033A1.499 1.499 0 0 1 17.684 17H6.314c-.683 0-1.28-.462-1.451-1.124ZM19.25 20a.75.75 0 0 0-.75-.75h-13a.75.75 0 0 0 0 1.5h13a.75.75 0 0 0 .75-.75Z"/></svg>
